X: 11741
M: 6/8
L: 1/8
K: D
f2f (fe)d | c2A ABc | d2d def | (g2e) ede |\
f2f fed | {d}c2A ABc | d2d efg | (f2d) d2 :|
e2e e2e | efg gab | (ba)a (ag)f | (fe)e e2A |\
e2e e2e | efg gab | .b.a.g .f.e.d | .c.B.A .G.F.E |
(DE)F F2F | (FG)A A2A | (Ad).B (Ad).B | AFF (F2E) |\
(DE).F F2F | (FG).A A2A | (Ad).B (AB).G | (FD)D D2 |]


